Sources/FrostedUI/Resources/Icons.xcassets/heart12.imageset/heart-12.svg

<svg width="12" height="12" viewBox="0 0 12 12" fill="none" xmlns="http://www.w3.org/2000/svg" data-fui-icon="true">
  <path
    d="M7.81836 2C9.50277 2.00011 10.75 3.49764 10.75 5.16699C10.7499 5.97471 10.4182 6.72384 10 7.35547C9.57821 7.9925 9.02982 8.56828 8.50391 9.04492C7.97485 9.52438 7.44841 9.92112 7.05664 10.1973C6.86013 10.3358 6.69565 10.446 6.5791 10.5215C6.52112 10.559 6.47486 10.5881 6.44238 10.6084C6.42637 10.6184 6.41339 10.6263 6.4043 10.6318C6.39973 10.6346 6.39526 10.637 6.39258 10.6387C6.39137 10.6394 6.39045 10.6401 6.38965 10.6406L6.38867 10.6416H6.3877C6.14836 10.7862 5.84817 10.7861 5.60938 10.6406V10.6396H5.6084C5.60754 10.6391 5.60583 10.6385 5.60449 10.6377C5.60182 10.6361 5.5983 10.6337 5.59375 10.6309C5.58465 10.6252 5.57193 10.6167 5.55566 10.6064C5.52319 10.586 5.47703 10.5564 5.41895 10.5186C5.30248 10.4426 5.13783 10.3326 4.94141 10.1934C4.54989 9.91575 4.02382 9.51757 3.49512 9.03711C2.96956 8.55947 2.42153 7.98323 2 7.34766C1.58244 6.71801 1.25009 5.97082 1.25 5.16699C1.25 3.49764 2.49723 2.00011 4.18164 2C4.87581 2 5.50602 2.25532 6 2.67871C6.49398 2.25532 7.12419 2 7.81836 2ZM7.81836 3.5C7.34649 3.5 6.91042 3.75846 6.65039 4.21094L6 3.83691L5.34961 4.21094C5.08958 3.75846 4.65351 3.5 4.18164 3.5C3.4662 3.50011 2.75 4.17815 2.75 5.16699C2.75009 5.56123 2.91771 6.0175 3.25 6.51855C3.57839 7.01371 4.0306 7.49574 4.50488 7.92676C4.97602 8.35489 5.45018 8.71558 5.80859 8.96973C5.87687 9.01814 5.94247 9.0605 6.00098 9.10059C6.05933 9.06086 6.12528 9.01966 6.19336 8.97168C6.55155 8.71919 7.02528 8.36027 7.49609 7.93359C7.97003 7.50409 8.4219 7.02292 8.75 6.52734C9.08159 6.02645 9.24991 5.56736 9.25 5.16699C9.25 4.17815 8.5338 3.50011 7.81836 3.5ZM6.65039 4.21094C6.51663 4.44377 6.26852 4.58789 6 4.58789C5.73148 4.58789 5.48337 4.44377 5.34961 4.21094L6 3.83789L6.65039 4.21094Z"
    fill="currentColor"
  />
</svg>

<svg xmlns="http://www.w3.org/2000/svg" width="12" height="12" fill="none" data-fui-icon="true" viewBox="0 0 12 12"><path fill="currentColor" d="M7.818 2c1.685 0 2.932 1.498 2.932 3.167 0 .808-.332 1.557-.75 2.188-.422.637-.97 1.213-1.496 1.69a15.4 15.4 0 0 1-2.1 1.587l-.011.007q-.003 0-.003.002h-.002a.75.75 0 0 1-.779 0v-.001l-.005-.002-.01-.007-.038-.025-.137-.087a15.584 15.584 0 0 1-1.924-1.481C2.97 8.558 2.422 7.982 2 7.347c-.418-.63-.75-1.377-.75-2.181C1.25 3.497 2.497 2 4.182 2c.694 0 1.324.255 1.818.679A2.78 2.78 0 0 1 7.818 2m0 1.5c-.472 0-.908.258-1.168.71L6 3.838l-.65.374c-.26-.453-.696-.711-1.168-.711-.716 0-1.432.678-1.432 1.667 0 .394.168.85.5 1.352.328.495.78.977 1.255 1.408.471.428.945.789 1.304 1.043q.103.071.192.13.088-.058.192-.128c.359-.253.832-.612 1.303-1.038.474-.43.926-.911 1.254-1.407.332-.5.5-.96.5-1.36 0-.989-.716-1.667-1.432-1.667m-1.168.71a.75.75 0 0 1-1.3 0L6 3.839z"/></svg>
